X:1
T:Title
%%score { 1 | 2 }
L:1/8
M:3/4
K:C
V:1 treble nm="Grand Piano"
V:2 bass 
V:1
 z2 z2[Q:1/4=100] [EG]2 | [EG]>[EG] [EG]2 [CE]2 | [Ec]>[Ec] [Ec]3 [Ec] | c3 c BA |[M:2/4] [EG]4 | %5
[M:1/4] [EG]2 |[M:3/4] [EG]>[EG] [EG]2 [CE]2 | [Ec]>[Ec] [Ec]3 [Ge] | [Fd]3 [Fd] [DFB][DFB] | %9
[M:2/4] [CEc]4 |[M:1/4] [DBd]2 |[M:3/4] [DBd]>[DBd] [DGB]3 [DGB] | [DAc]>[DAc] [D^FA]3 [DFA] | %13
 [DGB]3 [DGB] [DAc][A,D^F] |[M:2/4] [B,DG]4 |[M:1/4] [DBd]2 |[M:3/4] [DBd]>[DBd] [DGB]3 [DGB] | %17
 [DAc]>[DAc] [D^FA]3 [DFA] | [DGB]3 [DGB] [C^FA][B,G] |[M:2/4] [Ec]4 |[M:1/4] [EG]2 | %21
[M:3/4] [EG]>[EG] [EG]2 [Ec]2 |[M:7/8] [EG]>[EG] [FG]3 [EG]2 |[M:3/4] [EG]>[EG] [EG]2 [Ec]2 | %24
[M:5/8] [G_B]>[GB] A3 |[M:1/4] A2 |[M:3/4] A>A A2 c2 |[M:15/16] [EG]>[EG][FG]- [FG]3- [FG]/[FG] | %28
[M:3/4] [EG]3 c B[Fd] |[M:2/4] [Ec]4 |] %30
V:2
 z2 z2 [C,C]2 | [C,C]>[C,C] [C,C]2 [C,G,]2 | [C,G,]>[C,G,] [C,G,]3 [C,G,] | %3
 [F,A,F]3 [F,A,F] [F,CF][F,CF] |[M:2/4] [C,C]4 |[M:1/4] [C,C]2 | %6
[M:3/4] [C,C]>[C,C] [C,C]2 [C,G,]2 | [C,G,]>[C,G,] [C,G,]3 [C,C] | [G,B,]3 [G,B,] G,,G,, | %9
[M:2/4] C,4 |[M:1/4] G,2 |[M:3/4] G,>G, G,3 G, | D,>D, D,3 D, | G,3 G, D,D, |[M:2/4] G,4 | %15
[M:1/4] G,2 |[M:3/4] G,>G, G,3 G, | D,>D, D,3 D, | G,3 G, D,G, |[M:2/4] [C,C]4 |[M:1/4] [C,C]2 | %21
[M:3/4] [C,C]>[C,C] [C,C]2 [C,C]2 |[M:7/8] [C,C]>[C,C] [D,B,]3 [E,C]2 | %23
[M:3/4] [C,C]>[C,C] [C,C]2 [C,C]2 |[M:5/8] [E,C]>[E,C] [F,CF]3 |[M:1/4] [F,CF]2 | %26
[M:3/4] [F,CF]>[F,CF] [F,CF]2 [F,A,F]2 |[M:15/16] [C,C]>[C,C][D,B,]- [D,B,]3- [D,B,]/[D,B,] | %28
[M:3/4] [C,C]3 [E,G,E] [G,F][G,,G,] |[M:2/4] [C,G,]4 |] %30

